X:1
T:The Cameronian Rant  "CYMRU"
M:6/8
L:1/8
Q:80
C:Willie Morrison
S:Jig
K:HP
[| {g}f/2e/2 | \
{g}d{e}G{d}G{g}G{d}G{e}G | \
{g}d{e}G{d}G{g}Bg{f}g |
{a}d{e}G{d}G{g}G{d}G{e}G | \
{g}d{e}d{G}d{gef}e2d | | \
{g}c{e}c{G}c{g}A{d}A{e}A |
{d}c{e}B{G}B{g}ca{g}a | \
B{e}c{G}c{g}A{d}A{e}A | \
{g}dc{G}c{g}Bg{f}g| |
{a}G{d}G{e}G{g}d{e}d{G}d | \
{g}d{e}G{d}G{a}gB{G}B | \
{g}d{e}d{G}d{g}B{e}B{G}B |
{g}df{e}f{g}fed | | \
{g}c{d}A{e}A{g}A{d}A{e}A | \
{g}c{d}A{e}A{g}B{d}A{e}A |
{g}c{d}A{e}A{g}A{d}A{e}A | \
{gde}dc{G}c{gcd}cB{G}B|] [ | \
{g}G{d}G{e}G{gf}g2a |
ge{A}e{g}dB{G}B | \
{g}G{d}G{e}G{gf}g2a | \
ge{A}e{g}dB{G}B| |
{g}A{d}A{e}A{ag}a2A | \
{GAG}Aa{g}agec | \
{g}A{d}A{e}A{ag}a2A |
{GAG}Aa{g}aged | | \
{g}G{d}G{e}G{gf}g2a | \
ge{A}e{g}dB{G}B |
{g}d{e}G{d}G{g}dg{f}g | \
{a}B{d}G{e}G{g}G2g | | \
{a}fa{g}ae/2{A}e3/2g |
{a}fa{g}ae/2{A}e3/2f | \
{a}ge{A}eae{A}e | \
{a}ga{g}age{A}e|] [ |
{g}d{e}G{d}GgG{d}G | \
{g}d{e}G{d}G{g}G{d}G{e}G | \
{g}d{e}G{d}G{g}G{d}G{e}G |
{g}d{e}d{G}d{gef}e2d | | \
{g}c{e}c{G}cae{A}e | \
{g}c{e}c{G}c{g}c{d}A{e}A |
{g}c{d}A{e}A{g}A{d}A{e}A | \
{g}dc{G}c{g}Bg{f}g | | \
{a}d{e}d{G}dgG{d}G |
{g}d{e}d{G}d{g}d{e}G{d}G | \
{g}d{e}G{d}G{g}G{d}G{e}G | \
{g}df{e}f{g}fed| |
{g}c{e}c{G}c{g}d{e}d{G}d | \
{g}c{e}c{G}c{g}c{d}A{e}A | \
{g}c{d}A{e}A{g}A{d}A{e}A |
{gde}dc{G}c{gcd}cB{G}B|] [ | \
{g}G{d}G{e}G{gf}g2{a}B | \
ag{a}f{a}gB{G}B |
{g}d{e}G{d}G{g}d{e}d{G}d | \
{gf}g2B{a}gB{G}B | | \
{g}c{d}A{e}A{ag}a2g |
ac{G}c{gef}eA{GAG}A | \
{g}c{d}A{e}A{ag}a2g | \
aA{GAG}A{gef}ed{G}d| |
{g}G{d}G{e}G{gf}g2{a}B | \
ag{a}f{a}gB{G}B | \
{g}d{e}G{d}G{g}dg{f}g |
{g}B{d}G{e}G{g}Gg | | \
{a}fa{g}ae/2{A}e3/2g | \
{a}fa{g}ae/2{A}e3/2g |
{a}ge{A}eae{A}e | \
{a}ga{g}age{A}e|] [ | \
{g}d{e}G{d}G{g}G{d}G{e}G |
{g}d{e}G{d}G{g}B{d}G{e}G | \
{g}d{e}G{d}G{g}G{d}G{e}G | \
{g}f{e}G{d}G{g}B{d}G{e}G| |
{g}c{d}A{e}A{g}A{d}A{e}A | \
{g}c{d}A{e}A{g}B{d}A{e}A | \
{g}c{d}A{e}A{g}A{d}A{e}A |
{g}c{d}A{e}A{g}B{d}A{e}A | | \
{g}d{e}G{d}G{g}G{d}G{e}G | \
{g}d{e}G{d}G{g}B{d}G{e}G |
{g}d{e}G{d}G{g}G{d}G{e}G | \
{g}G{d}G{e}G{g}B{d}G{e}G | | \
{g}c{d}A{e}A{g}A{d}A{e}A |
{g}A{d}A{e}A{g}c{d}A{e}A | \
{g}A{d}A{e}A{g}c{d}A{e}A | \
{gde}dc{G}c{gcd}cB{G}B|] [ |
{g}G{d}G{e}G{g}dB{G}B | \
{a}gB{G}B{g}dB{G}B | \
{g}G{d}G{e}G{g}dB{G}B |
{a}gB{G}B{g}dB{G}B | | \
{g}A{d}A{e}A{gef}ec{G}c | \
ac{G}c{gef}ec{G}c |
{g}A{d}A{e}A{gef}ec{G}c | \
ac{G}c{gef}ed{G}d | | \
{g}G{d}G{e}G{g}Bd{G}d |
{g}Bg{f}g{a}Bd{G}d | \
{g}G{d}B{G}B{g}dg{f}g | \
{afg}f2{Gdc}d3g| |
{a}fa{g}ae/2{A}e3/2g | \
{a}fa{g}ae/2{A}e3/2f | \
{a}ge{A}eae{A}e |
{a}ga{g}age{A}e|] [ | \
{g}dB{G}B{g}B{e}B{G}B | \
{a}gB{G}B{g}dB{G}B |
{g}dB{G}B{g}B{e}B{G}B | \
{a}gB{G}B{g}dB{G}B | | \
{g}c{d}A{e}A{g}A{d}A{e}A |
ae{A}e{g}c{d}A{e}A | \
{g}c{d}A{e}A{g}A{d}A{e}A | \
{g}ea{g}ac{d}A{e}A| |
{g}dB{G}B{g}B{e}B{G}B | \
{g}Bg{f}g{a}Bd{G}d | \
{g}dB{G}B{g}B{e}B{G}B |
{g}B{e}B{G}B{g}dB{G}B | | \
{g}c{d}A{e}A{g}A{d}A{e}A | \
{g}A{d}A{e}A{g}c{d}A{e}A |
{g}A{d}A{e}A{g}c{d}A{e}A | \
{gde}dc{G}c{g}B{d}A{e}A|] [ | \
{g}G{d}G{e}G{gf}g2d |
{g}efgadB | \
{g}G{d}G{e}G{gf}g2d | \
{g}efgadB| |
{g}A{d}A{e}A{ag}a2A | \
{g}fgagfe | \
{g}c{d}c{G}c{ag}a2A |
agf{g}efg | | \
{g}G{d}G{e}G{gf}g2d | \
{g}efg{a}fed |
{g}def{a}ged | \
{g}B{d}G{e}G{g}G2g | | \
agf{g}e/2{A}e3/2g |
{a}fed{gdG}d2c | \
{g}B{e}B{G}B{g}c{e}c{G}c | \
{g}d{e}d{G}d{g}dB{e}G|]
